X:1
T: The Cloone Hornpipe
P:Roche version
R:Reel
Q: 232
K:G
M:4/4
L:1/8
|:Bc|d^c ed =cB AG|BA GF GA Bc|dg fg ed cB|AG FE D2 Bc|
d^c ed =cB AG|BA GF GA Bc|dg fg ec AF|A2 G2 G2:|
|:Bc|dg fg ed Bd|ed ef g2 fg|ed cB cB AG|AG FE D2 ((3DEF)|
G2 G2 FA A2|GB dB c2 dc|((3BdB) GB|((3AcA) FA|G2 F2 G2:|
